X: 21671
T: THE CROSS OF INVERNESS -- Reel
R: reel
B: K\"ohler's Violin Repository, v.2, 1885 p.167 #1
F: http://www.archive.org/details/klersviolinrepos02rugg
Z: 2012 John Chambers <jc:trillian.mit.edu>
M: C|
L: 1/8
K: G
uG |\
DB,B,D ECCB | cBAG FDDE | DB,B,D ECCG | FDAF G2(GE) |
DB,B,D ECCB | cBAG FEDC | B,DGD CEAE | (FD)AF G2G :|
|: uc |\
g2g2 ecce | ^caca fdd=c | BgBg ecc^g | (a^g)a^c d2d=c |
(B/c/d) gd (ec)ce | (^c/d/e) ag (fd)d(g/a/) | bdBg ecAc | (B/c/d) DF G2"_Fine.""^D.C."G |]

%%sep 2 1 500

